X:1
T:Green Groves of Erin -- Reel
R:reel
B:Ryan's Mammoth Collection
N: 374
Z: Contributed by Ray Davies,  ray:davies99.freeserve.co.uk
M:C|
L:1/8
K:A
vcB"^Segno"|\
A2cA eAcA | BGGf gedB | A2cA eAcA | BGED EcA2 |
A2cA eAcA | BGGf gedB | A2cA eAcA | BGED EcA2 H:|
|:veaag eaag | eggf efg2 | eaag eaag | eg((3fga) gedB |
eaa2 bgaf | edef gfge | defa b2ag |\
 ((3efg)((3fga) gedB "^Segno":|
